images/benevolent-dictator.svg

<?xml version="1.0"?>
<svg xmlns="http://www.w3.org/2000/svg" xmlns:xlink="http://www.w3.org/1999/xlink" width="398px" height="205px" viewBox="0 0 398 205" version="1.1">
    <!-- Generator: Sketch 56.3 (81716) - https://sketch.com -->
    <title>images/benevolent-dictator</title>
    <desc>Created with Sketch.</desc>
    <g id="05---Workflows" stroke="none" stroke-width="1" fill="none" fill-rule="evenodd">
        <g id="Group">
            <g id="goldref-(2-line)" transform="translate(281.000000, 4.000000)">
                <rect id="Rectangle-4" fill="#CD9F00" fill-rule="evenodd" x="0" y="0" width="110.580108" height="38"/>
                <text stroke="none" font-family="Source Code Pro" font-size="12px" font-weight="900" fill="#979797" fill-opacity="1" text-anchor="middle" id="master-3">
                    <tspan fill="#f0f0f0" x="55.290054" y="15.53125" fill-opacity="1">blessed</tspan>
                    <tspan fill="#f0f0f0" x="55.290054" y="28.53125" fill-opacity="1">repository</tspan>
                </text>
            </g>
            <g id="symref" transform="translate(19.000000, 86.000000)">
                <rect id="Rectangle-2" fill="#00909A" fill-rule="evenodd" x="0" y="0" width="86" height="33"/>
                <text stroke="none" font-family="Source Code Pro" font-size="12px" font-weight="900" fill="#979797" fill-opacity="1" text-anchor="middle" id="master">
                    <tspan fill="#f0f0f0" x="43" y="20" fill-opacity="1">lieutenant</tspan>
                </text>
            </g>
            <g id="symref" transform="translate(117.000000, 86.000000)">
                <rect id="Rectangle-2" fill="#00909A" fill-rule="evenodd" x="0" y="0" width="86" height="33"/>
                <text stroke="none" font-family="Source Code Pro" font-size="12px" font-weight="900" fill="#979797" fill-opacity="1" text-anchor="middle" id="master">
                    <tspan fill="#f0f0f0" x="43" y="20" fill-opacity="1">lieutenant</tspan>
                </text>
            </g>
            <g id="other-(2-line)" transform="translate(6.000000, 161.000000)" stroke="#979797">
                <rect id="Rectangle-2" fill="#EFEFE7" fill-rule="evenodd" x="0.5" y="0.5" width="109.580108" height="37"/>
                <text stroke="none" font-family="Source Code Pro" font-size="12px" font-weight="900" fill="#979797" fill-opacity="1" text-anchor="middle" id="master-4">
                    <tspan fill="#808080" x="54.790054" y="16.03125" fill-opacity="1">developer</tspan>
                    <tspan fill="#808080" x="54.790054" y="30.03125" fill-opacity="1">public</tspan>
                </text>
            </g>
            <g id="other-(2-line)" transform="translate(144.000000, 161.000000)" stroke="#979797">
                <rect id="Rectangle-2" fill="#EFEFE7" fill-rule="evenodd" x="0.5" y="0.5" width="109.580108" height="37"/>
                <text stroke="none" font-family="Source Code Pro" font-size="12px" font-weight="900" fill="#979797" fill-opacity="1" text-anchor="middle" id="master-4">
                    <tspan fill="#808080" x="54.790054" y="16.03125" fill-opacity="1">developer</tspan>
                    <tspan fill="#808080" x="54.790054" y="30.03125" fill-opacity="1">public</tspan>
                </text>
            </g>
            <g id="other-(2-line)" transform="translate(281.000000, 161.000000)" stroke="#979797">
                <rect id="Rectangle-2" fill="#EFEFE7" fill-rule="evenodd" x="0.5" y="0.5" width="109.580108" height="37"/>
                <text stroke="none" font-family="Source Code Pro" font-size="12px" font-weight="900" fill="#979797" fill-opacity="1" text-anchor="middle" id="master-4">
                    <tspan fill="#808080" x="54.790054" y="16.03125" fill-opacity="1">developer</tspan>
                    <tspan fill="#808080" x="54.790054" y="30.03125" fill-opacity="1">public</tspan>
                </text>
            </g>
            <path id="Line-12" d="M63.5,52 L63.5,86 L62.5,86 L62.5,52 L58.5,52 L63,43 L67.5,52 L63.5,52 Z" fill="#8F8981" fill-rule="nonzero"/>
            <path id="Line-17" d="M273,24 L106,24 L106,23 L273,23 L273,19 L282,23.5 L273,28 L273,24 Z" fill="#8F8981" fill-rule="nonzero"/>
            <path id="Line-14" d="M64,128 L64,162 L63,162 L63,128 L59,128 L63.5,119 L68,128 L64,128 Z" fill="#8F8981" fill-rule="nonzero"/>
            <path id="Line-13" d="M106.863961,49.1568542 L143.207107,85.5 L142.5,86.2071068 L106.156854,49.863961 L103.328427,52.6923882 L100.146447,43.1464466 L109.692388,46.3284271 L106.863961,49.1568542 Z" fill="#8F8981" fill-rule="nonzero"/>
            <path id="Line-15" d="M110.863961,125.156854 L147.207107,161.5 L146.5,162.207107 L110.156854,125.863961 L107.328427,128.692388 L104.146447,119.146447 L113.692388,122.328427 L110.863961,125.156854 Z" fill="#8F8981" fill-rule="nonzero"/>
            <path id="Line-16" d="M211.254678,115.016386 L299.175332,161.290414 L298.709586,162.175332 L210.788932,115.901304 L208.925946,119.440977 L203.057541,111.267127 L213.117664,111.476713 L211.254678,115.016386 Z" fill="#8F8981" fill-rule="nonzero"/>
            <path id="Line-18" d="M112.746711,82.0298026 C143.887092,65.4484934 174.121255,50.9456057 193.350863,44.9363533 C202.283607,42.1448706 214.900326,39.5508307 230.260865,37.1652218 C241.461041,35.4257489 253.459489,33.8974911 265.457695,32.5927215 C269.656881,32.1360723 273.556187,31.7399655 277.055725,31.4059555 C278.280716,31.2890374 279.368292,31.1882281 280.305965,31.1037224 C280.634248,31.0741365 280.920371,31.0486997 281.162774,31.0274363 C281.406913,31.0061332 281.406913,31.0061332 281.457422,31.0018162 L281.955606,30.959238 L282.040762,31.9556056 L281.542578,31.9981838 C281.49316,32.0024072 281.49316,32.0024072 281.250158,32.023611 C281.008541,32.0448055 280.723209,32.070172 280.395724,32.0996859 C279.459774,32.1840364 278.373947,32.2846835 277.150737,32.4014316 C273.655415,32.7350392 269.76045,33.1307051 265.565804,33.5868604 C253.581634,34.8901038 241.597707,36.4165121 230.414333,38.1533754 C215.098809,40.5319931 202.524211,43.1173729 193.649137,45.8908333 C174.501873,51.8743536 144.302005,66.3606723 113.2211,82.9101325 L115.117431,86.4291823 L105.059841,86.7371913 L110.847988,78.5063134 L112.746711,82.0298026 Z" fill="#8F8981" fill-rule="nonzero" opacity="0.5"/>
            <path id="Line-19" d="M210.38614,81.4918985 L281.651107,35.8092274 L282.190773,36.6511065 L210.925806,82.3337776 L213.08447,85.7012942 L203.07906,86.7698331 L208.227475,78.1243819 L210.38614,81.4918985 Z" fill="#8F8981" fill-rule="nonzero" opacity="0.5"/>
            <path id="Line-20" d="M336,153 L336,42 L337,42 L337,153 L341,153 L336.5,162 L332,153 L336,153 Z" fill="#8F8981" fill-rule="nonzero" opacity="0.5"/>
            <path id="Line-21" d="M237.311652,155.475186 L325.411078,41.7985066 L326.201493,42.4110783 L238.102067,156.087758 L241.263727,158.538045 L232.193714,162.895208 L234.149991,153.0249 L237.311652,155.475186 Z" fill="#8F8981" fill-rule="nonzero" opacity="0.5"/>
            <path id="Line-22" d="M124.786708,159.540772 C140.355425,156.5886 157.746279,152.339483 175.229512,146.64059 C200.10536,138.531975 221.497668,128.622838 237.610332,116.763202 C245.170892,111.198294 252.199425,105.159034 258.713507,98.717076 C271.19521,86.3735724 281.24508,73.1482 289.078475,59.9241086 C291.819306,55.2971252 294.087006,51.0015966 295.908548,47.1480311 C296.545479,45.8005699 297.081007,44.6050116 297.518506,43.5751723 C297.671318,43.2154648 297.80089,42.9023645 297.907645,42.6375982 C297.971283,42.4797681 298.012949,42.3737238 298.033065,42.3211926 L298.211873,41.854258 L299.145742,42.2118728 L298.966935,42.6788074 C298.944739,42.7367695 298.900933,42.848259 298.835093,43.0115501 C298.726052,43.281986 298.594128,43.6007695 298.438895,43.9661746 C297.996268,45.0080855 297.455314,46.2157575 296.812633,47.5753831 C294.978139,51.4563517 292.69596,55.779304 289.938855,60.4337615 C282.063865,73.7280726 271.962582,87.0211028 259.416667,99.4281082 C252.868737,105.903539 245.803447,111.974382 238.203115,117.568564 C221.991098,129.501329 200.508044,139.4525 175.539426,147.591354 C158.00596,153.306622 140.569667,157.566396 124.958342,160.526045 L125.646162,164.474511 L116.007418,161.585808 L124.101627,155.608034 L124.786708,159.540772 Z" fill="#8F8981" fill-rule="nonzero" opacity="0.5"/>
            <g id="ref" transform="translate(20.000000, 9.000000)">
                <rect id="Rectangle-2" fill="#F44D27" fill-rule="evenodd" x="0" y="0" width="106" height="33"/>
                <text stroke="none" font-family="Source Code Pro" font-size="12px" font-weight="900" fill="#979797" fill-opacity="1" text-anchor="middle" id="master">
                    <tspan fill="#f0f0f0" x="53" y="20" fill-opacity="1">dictator</tspan>
                </text>
            </g>
        </g>
    </g>
</svg>

<?xml version="1.0" encoding="UTF-8"?>
<svg id="svg35706" version="1.1" viewBox="0 0 393.58 203" xmlns="http://www.w3.org/2000/svg" xmlns:cc="http://creativecommons.org/ns#" xmlns:dc="http://purl.org/dc/elements/1.1/" xmlns:rdf="http://www.w3.org/1999/02/22-rdf-syntax-ns#">
 <metadata id="metadata35712">
  <rdf:RDF>
   <cc:Work rdf:about="">
    <dc:format>image/svg+xml</dc:format>
    <dc:type rdf:resource="http://purl.org/dc/dcmitype/StillImage"/>
    <dc:title>images/benevolent-dictator</dc:title>
   </cc:Work>
  </rdf:RDF>
 </metadata>
 <!-- Generator: Sketch 56.3 (81716) - https://sketch.com -->
 <title id="title35634">images/benevolent-dictator</title>
 <desc id="desc35636">Created with Sketch.</desc>
 <g id="05---Workflows" transform="translate(-2)" style="fill-rule:evenodd;fill:none">
  <g id="Group">
   <path id="Line-21" d="m238.39 153.65 88.315-113.03.79041.61257-88.315 113.03 3.1617 2.4503-9.07 4.3572 1.9563-9.8703z" style="fill-rule:nonzero;fill:#8f8981;opacity:.5"/>
   <path id="Line-12" transform="translate(0,-1)" d="m63.5 52v37.337h-1v-37.337h-4l4.5-9 4.5 9z" style="fill-rule:nonzero;fill:#8f8981"/>
   <g id="symref" transform="translate(19,86)">
    <g id="g35819">
     <rect id="Rectangle-2" width="86" height="33" style="fill-rule:evenodd;fill:#00909a"/>
     <text id="master" transform="translate(-.0023438 .958)" font-size="12px" font-weight="700" style="fill:#979797;font-family:'Source Code Pro';font-size:12px;font-weight:700;text-anchor:middle"><tspan id="tspan35646" x="43" y="20" style="fill:#f0f0f0">lieutenant</tspan></text>
    </g>
   </g>
   <path id="Line-13" transform="translate(0,-1.2)" d="m106.86 49.157 38.664 38.588-.70711.70711-38.664-38.588-2.8284 2.8284-3.182-9.5459 9.5459 3.182z" style="fill-rule:nonzero;fill:#8f8981"/>
   <g id="g35656" transform="translate(117,86)">
    <g id="g35814">
     <rect id="rect35650" width="86" height="33" style="fill-rule:evenodd;fill:#00909a"/>
     <text id="text35654" transform="translate(-.0023438 .958)" font-size="12px" font-weight="700" style="fill:#979797;font-family:'Source Code Pro';font-size:12px;font-weight:700;text-anchor:middle"><tspan id="tspan35652" x="43" y="20" style="fill:#f0f0f0">lieutenant</tspan></text>
    </g>
   </g>
   <path id="Line-14" d="m64 128v34h-1v-34h-4l4.5-9 4.5 9z" style="fill-rule:nonzero;fill:#8f8981"/>
   <g id="g35781">
    <rect id="rect35658" transform="translate(6,161)" x=".5" y=".5" width="109.58" height="37" style="fill-rule:evenodd;fill:#efefe7;stroke:#979797"/>
    <text id="text35724" transform="translate(-51.067 -41.775)" x="112.38495" y="217.87744" style="fill:gray;font-family:'Source Code Pro';font-feature-settings:normal;font-size:12px;font-variant-caps:normal;font-variant-ligatures:normal;font-variant-numeric:normal;font-weight:bold;letter-spacing:0px;line-height:14px;text-align:center;text-anchor:middle;word-spacing:0px" xml:space="preserve"><tspan id="tspan35722" x="112.38495" y="217.87744">developer</tspan><tspan id="tspan35726" x="112.38495" y="231.87744">public</tspan></text>
   </g>
   <path id="Line-17" transform="translate(-1.1)" d="m273 24h-167v-1h167v-4l9 4.5-9 4.5z" style="fill-rule:nonzero;fill:#8f8981"/>
   <path id="Line-15" d="m110.86 125.16 36.343 36.343-.70711.70711-36.343-36.343-2.8284 2.8284-3.182-9.5459 9.5459 3.182z" style="fill-rule:nonzero;fill:#8f8981"/>
   <path id="Line-16" d="m211.25 115.02 87.921 46.274-.46574.88492-87.921-46.274-1.863 3.5397-5.8684-8.1738 10.06.20958z" style="fill-rule:nonzero;fill:#8f8981"/>
   <path id="Line-18" d="m112.53 81.384c31.14-16.581 61.59-30.438 80.819-36.448 8.9328-2.7915 21.549-5.3855 36.91-7.7711 11.2-1.7395 23.199-3.2677 35.197-4.5725 4.1992-.45665 8.0985-.85276 11.598-1.1868 1.225-.11692 2.3126-.21773 3.2502-.30223.32828-.02959.6144-.05502.8568-.07629.24414-.0213.24414-.0213.29465-.02562l.49819-.04258.0851.99637-.49818.04258c-.0494.0042-.0494.0042-.29242.02543-.24162.02119-.52695.04656-.85444.07607-.93595.08435-2.0218.185-3.245.30175-3.4953.33361-7.3903.72927-11.585 1.1854-11.984 1.3032-23.968 2.8297-35.151 4.5665-15.316 2.3786-27.89 4.964-36.765 7.7375-19.147 5.9835-49.562 19.824-80.643 36.374l1.8963 3.519-10.058.30801 5.7882-8.2309z" style="fill-rule:nonzero;fill:#8f8981;opacity:.5"/>
   <path id="Line-19" d="m210.39 81.492 71.265-45.683.53966.84188-71.265 45.683 2.1587 3.3675-10.005 1.0685 5.1484-8.6455z" style="fill-rule:nonzero;fill:#8f8981;opacity:.5"/>
   <path id="Line-20" transform="translate(0,-1)" d="m336 153v-111h1v111h4l-4.5 9-4.5-9z" style="fill-rule:nonzero;fill:#8f8981;opacity:.5"/>
   <path id="Line-22" d="m125.32 159.54c15.569-2.9522 32.421-7.2013 49.905-12.9 24.876-8.1086 46.268-18.018 62.381-29.877 7.5606-5.5649 14.589-11.604 21.103-18.046 12.482-12.344 22.532-25.569 30.365-38.793 2.7408-4.627 5.0085-8.9225 6.8301-12.776.63693-1.3475 2.6437-5.8744 2.6437-5.8744l.93387.35762s-2.0308 4.5845-2.6735 5.9441c-1.8345 3.881-4.1167 8.2039-6.8738 12.858-7.875 13.294-17.976 26.587-30.522 38.994-6.5479 6.4754-13.613 12.546-21.214 18.14-16.212 11.933-37.695 21.884-62.664 30.023-17.533 5.7153-34.432 9.975-50.043 12.935l.68782 3.9485-9.6388-2.8887 8.0942-5.9778z" style="fill-rule:nonzero;fill:#8f8981;opacity:.5"/>
   <g id="ref" transform="translate(20,9)">
    <rect id="rect35697" width="106" height="33" style="fill-rule:evenodd;fill:#f44d27"/>
    <text id="text35701" transform="translate(.027656 .958)" font-size="12px" font-weight="700" style="fill:#979797;font-family:'Source Code Pro';font-size:12px;font-weight:700;text-anchor:middle"><tspan id="tspan35699" x="53" y="20" style="fill:#f0f0f0">dictator</tspan></text>
   </g>
   <g id="g35787">
    <rect id="rect35666" transform="translate(144,161)" x=".5" y=".5" width="109.58" height="37" style="fill-rule:evenodd;fill:#efefe7;stroke:#979797"/>
    <text id="text35724-1" transform="translate(86.933 -41.775)" x="112.38495" y="217.87744" style="fill:gray;font-family:'Source Code Pro';font-feature-settings:normal;font-size:12px;font-variant-caps:normal;font-variant-ligatures:normal;font-variant-numeric:normal;font-weight:bold;letter-spacing:0px;line-height:14px;text-align:center;text-anchor:middle;word-spacing:0px" xml:space="preserve"><tspan id="tspan35722-5" x="112.38495" y="217.87744">developer</tspan><tspan id="tspan35726-9" x="112.38495" y="231.87744">public</tspan></text>
   </g>
   <g id="g35793">
    <rect id="rect35676" transform="translate(281,161)" x=".5" y=".5" width="109.58" height="37" style="fill-rule:evenodd;fill:#efefe7;stroke:#979797"/>
    <text id="text35724-6" transform="translate(223.93 -41.775)" x="112.38495" y="217.87744" style="fill:gray;font-family:'Source Code Pro';font-feature-settings:normal;font-size:12px;font-variant-caps:normal;font-variant-ligatures:normal;font-variant-numeric:normal;font-weight:bold;letter-spacing:0px;line-height:14px;text-align:center;text-anchor:middle;word-spacing:0px" xml:space="preserve"><tspan id="tspan35722-3" x="112.38495" y="217.87744">developer</tspan><tspan id="tspan35726-8" x="112.38495" y="231.87744">public</tspan></text>
   </g>
   <g id="g35809">
    <g id="goldref-(2-line)" transform="translate(281,4)">
     <rect id="Rectangle-4" width="110.58" height="38" style="fill-rule:evenodd;fill:#cd9f00"/>
    </g>
    <text id="text35797" transform="translate(-111.98 -26.006)" x="447.75" y="45.047966" style="fill:#f0f0f0;font-family:'Source Code Pro';font-feature-settings:normal;font-size:12px;font-variant-caps:normal;font-variant-ligatures:normal;font-variant-numeric:normal;font-weight:bold;letter-spacing:0px;line-height:14px;text-align:center;text-anchor:middle;word-spacing:0px" xml:space="preserve"><tspan id="tspan35795" x="447.75" y="45.047966">blessed</tspan><tspan id="tspan35799" x="447.75" y="59.047966">repository</tspan></text>
   </g>
  </g>
 </g>
</svg>
